svg/SJJB-OpenStreetMapIcons/tourist/archaeological.svg

<?xml version="1.0" encoding="UTF-8" standalone="no"?>
<!-- Created with Inkscape (http://www.inkscape.org/) -->
<svg
   xmlns:dc="http://purl.org/dc/elements/1.1/"
   xmlns:cc="http://creativecommons.org/ns#"
   xmlns:rdf="http://www.w3.org/1999/02/22-rdf-syntax-ns#"
   xmlns:svg="http://www.w3.org/2000/svg"
   xmlns="http://www.w3.org/2000/svg"
   xmlns:sodipodi="http://sodipodi.sourceforge.net/DTD/sodipodi-0.dtd"
   xmlns:inkscape="http://www.inkscape.org/namespaces/inkscape"
   version="1.0"
   width="580"
   height="580"
   id="svg2"
   sodipodi:version="0.32"
   inkscape:version="0.46"
   sodipodi:docname="tourist_archaeological.svg"
   sodipodi:docbase="s:\Data\FacilityIcons"
   inkscape:output_extension="org.inkscape.output.svg.inkscape">
  <metadata
     id="metadata2975">
    <rdf:RDF>
      <cc:Work
         rdf:about="">
        <dc:format>image/svg+xml</dc:format>
        <dc:type
           rdf:resource="http://purl.org/dc/dcmitype/StillImage" />
        <cc:license
           rdf:resource="http://web.resource.org/cc/PublicDomain" />
        <dc:language>en</dc:language>
      </cc:Work>
    </rdf:RDF>
  </metadata>
  <sodipodi:namedview
     inkscape:window-height="1003"
     inkscape:window-width="1400"
     inkscape:pageshadow="2"
     inkscape:pageopacity="0.0"
     guidetolerance="10.0"
     gridtolerance="10.0"
     objecttolerance="10.0"
     borderopacity="1.0"
     bordercolor="#666666"
     pagecolor="#ffffff"
     id="base"
     inkscape:zoom="0.46083856"
     inkscape:cx="1018.8137"
     inkscape:cy="242.12702"
     inkscape:window-x="-4"
     inkscape:window-y="-4"
     inkscape:current-layer="svg2"
     showgrid="false" />
  <defs
     id="defs4">
    <inkscape:perspective
       sodipodi:type="inkscape:persp3d"
       inkscape:vp_x="0 : 290 : 1"
       inkscape:vp_y="0 : 1000 : 0"
       inkscape:vp_z="580 : 290 : 1"
       inkscape:persp3d-origin="290 : 193.33333 : 1"
       id="perspective2441" />
    <inkscape:perspective
       id="perspective3452"
       inkscape:persp3d-origin="30 : 20 : 1"
       inkscape:vp_z="60 : 30 : 1"
       inkscape:vp_y="0 : 1000 : 0"
       inkscape:vp_x="0 : 30 : 1"
       sodipodi:type="inkscape:persp3d" />
    <symbol
       viewBox="244.5 110 489 219.9"
       id="symbol-university">
      <path
         id="path4460"
         d="M79,43l57,119c0,0,21-96,104-96s124,106,124,106l43-133l82-17L0,17L79,43z" />
      <path
         id="path4462"
         d="M94,176l-21,39"
         stroke-width="20"
         stroke="#000000"
         fill="none" />
      <path
         id="path4464"
         d="M300,19c0,10.5-22.6,19-50.5,19S199,29.5,199,19s22.6-19,50.5-19S300,8.5,300,19z" />
      <path
         id="path4466"
         d="M112,216l-16-38L64,88c0,0-9-8-4-35s16-24,16-24"
         stroke-width="20"
         stroke="#000000"
         ill="none" />
    </symbol>
    <inkscape:perspective
       id="perspective4471"
       inkscape:persp3d-origin="372.04724 : 350.78739 : 1"
       inkscape:vp_z="744.09448 : 526.18109 : 1"
       inkscape:vp_y="0 : 1000 : 0"
       inkscape:vp_x="0 : 526.18109 : 1"
       sodipodi:type="inkscape:persp3d" />
    <inkscape:perspective
       id="perspective4668"
       inkscape:persp3d-origin="6 : 4 : 1"
       inkscape:vp_z="12 : 6 : 1"
       inkscape:vp_y="0 : 1000 : 0"
       inkscape:vp_x="0 : 6 : 1"
       sodipodi:type="inkscape:persp3d" />
    <inkscape:perspective
       id="perspective8054"
       inkscape:persp3d-origin="372.04724 : 350.78739 : 1"
       inkscape:vp_z="744.09448 : 526.18109 : 1"
       inkscape:vp_y="0 : 1000 : 0"
       inkscape:vp_x="0 : 526.18109 : 1"
       sodipodi:type="inkscape:persp3d" />
    <inkscape:perspective
       id="perspective8069"
       inkscape:persp3d-origin="372.04724 : 350.78739 : 1"
       inkscape:vp_z="744.09448 : 526.18109 : 1"
       inkscape:vp_y="0 : 1000 : 0"
       inkscape:vp_x="0 : 526.18109 : 1"
       sodipodi:type="inkscape:persp3d" />
    <inkscape:perspective
       id="perspective8896"
       inkscape:persp3d-origin="372.04724 : 350.78739 : 1"
       inkscape:vp_z="744.09448 : 526.18109 : 1"
       inkscape:vp_y="0 : 1000 : 0"
       inkscape:vp_x="0 : 526.18109 : 1"
       sodipodi:type="inkscape:persp3d" />
  </defs>
  <g
     id="g1327">
    <path
       d="M 66.275,1.768 C 24.94,1.768 1.704,23.139 1.704,66.804 L 1.704,516.927 C 1.704,557.771 22.599,579.156 63.896,579.156 L 515.92,579.156 C 557.227,579.156 578.149,558.841 578.149,516.927 L 578.149,66.804 C 578.149,24.203 557.227,1.768 514.628,1.768 C 514.624,1.768 66.133,1.625 66.275,1.768 z "
       style="fill:#111;stroke:#eee;stroke-width:3.40799999"
       id="path1329" />
  </g>
  <g
     id="layer3"
     inkscape:label="Layout"
     style="display:none;stroke:#757575;stroke-opacity:1"
     transform="matrix(48.14969,0,0,48.14969,-536.27327,-33.306752)">
    <rect
       style="fill:none;stroke:#757575;stroke-width:0.10000000000000001;stroke-miterlimit:4;stroke-dasharray:none;stroke-opacity:1;display:inline"
       id="rect4134"
       width="10"
       height="10"
       x="1"
       y="1" />
    <rect
       style="fill:none;stroke:#757575;stroke-width:0.10000000000000001;stroke-miterlimit:4;stroke-dasharray:none;stroke-opacity:1;display:inline"
       id="rect4136"
       width="8"
       height="8"
       x="2"
       y="2" />
  </g>
  <path
     style="fill:#ffffff;stroke:#ffffff;stroke-width:5.36280584;stroke-miterlimit:4;stroke-dasharray:none;stroke-opacity:1"
     d="M 243.90797,546.82952 C 242.88748,546.61988 238.85198,545.91956 234.94016,545.2734 C 221.44613,543.04444 212.37961,541.30732 211.13779,540.71302 C 210.45268,540.38512 208.22225,539.71933 206.18131,539.23348 C 199.76671,537.70657 195.72549,536.48569 193.99158,535.5511 C 193.06991,535.05425 192.1506,534.64779 191.94863,534.64779 C 189.67736,534.64779 176.96462,526.55156 171.72004,521.76505 C 167.9154,518.29273 164.42572,511.94914 163.58781,506.98213 C 162.61964,501.24275 166.96731,492.89081 173.74437,487.47124 C 176.86482,484.97582 183.80237,481.01766 186.69952,480.07979 C 187.54991,479.80449 190.61134,478.03925 193.50269,476.15703 C 196.39403,474.27482 199.02302,472.73162 199.3449,472.72771 C 199.66677,472.72379 200.93855,472.20984 202.17108,471.58557 C 203.4036,470.96131 205.81568,470.08926 207.53125,469.64769 C 209.24682,469.20613 211.30168,468.52883 212.09758,468.14258 C 213.54474,467.44029 213.54474,467.44029 211.32252,464.9952 C 208.65529,462.06039 203.13185,457.16096 196.57253,451.91158 C 185.63871,443.16129 175.62281,434.15909 168.02878,426.25672 C 167.24253,425.43857 165.74498,423.91299 164.70087,422.86656 C 162.7355,420.89684 155.77603,412.68071 155.77603,412.33019 C 155.77603,412.22094 155.01988,411.2711 154.0957,410.21944 C 152.21946,408.0844 150.96719,406.55564 148.64151,403.56107 C 147.77265,402.44231 146.06679,400.30651 144.85072,398.81484 C 143.63463,397.32316 142.00296,395.28906 141.2248,394.2946 C 140.44661,393.30015 138.53391,390.85923 136.97434,388.87033 C 135.41478,386.88142 134.13671,385.06676 134.13419,384.8377 C 134.13165,384.60869 133.72915,384.09791 133.23976,383.70265 C 132.2996,382.94339 120.52326,365.92246 120.52326,365.32288 C 120.52326,365.13019 119.99742,364.14553 119.35474,363.13473 C 116.14098,358.08021 113.10161,353.04485 113.10161,352.77509 C 113.10161,352.60874 112.56117,351.61035 111.90062,350.55645 C 111.24008,349.50256 109.41075,346.19936 107.83545,343.21602 C 106.26016,340.23265 104.2698,336.46957 103.41242,334.85358 C 102.55505,333.2376 101.18057,330.49156 100.358,328.75127 C 99.53543,327.01099 98.5887,325.18029 98.254151,324.68305 C 97.375838,323.37763 93.140678,313.24143 91.266099,307.95821 C 90.383982,305.47209 88.964471,301.48936 88.11165,299.10772 C 86.024329,293.27858 83.011181,279.75419 82.211859,272.6268 C 81.853949,269.43532 81.249969,264.28722 80.8697,261.18656 C 79.813264,252.57279 80.862583,240.36434 83.124163,234.9565 C 84.797849,230.95442 83.797813,215.07698 80.921284,199.98156 C 80.263997,196.53225 79.854059,193.55889 80.010328,193.3741 C 80.166597,193.1893 79.91064,191.53643 79.441544,189.70106 C 78.972447,187.86569 78.261084,183.8214 77.860755,180.71374 C 77.460413,177.60607 77.009619,174.55493 76.858997,173.93339 C 76.20029,171.21538 74.697744,163.6624 73.486893,156.98254 C 71.581995,146.47376 71.522729,127.62568 73.376031,121.72474 C 74.078785,119.48722 75.006827,116.33437 75.438379,114.71839 C 76.448746,110.93495 81.347237,103.3936 86.142512,98.23915 C 89.942339,94.154684 96.33325,89.173627 98.384423,88.697812 C 98.995376,88.5561 99.495261,88.261299 99.495261,88.042729 C 99.495261,87.493487 105.45059,84.655405 109.93332,83.068343 C 117.00612,80.564292 130.9383,78.675192 138.14965,79.242435 C 147.51557,79.979144 157.01347,82.255703 162.97454,85.192726 C 164.62396,86.005415 175.47845,93.900726 178.86102,96.748236 C 180.60882,98.21954 180.60882,98.21954 180.24661,91.439204 C 179.88394,84.649963 178.80825,79.550927 177.49466,78.394105 C 177.10951,78.05492 175.11867,77.666366 173.07057,77.530627 C 168.40654,77.221533 163.87958,75.616493 162.42517,73.756303 C 161.29926,72.316262 158.66979,67.132647 154.77115,58.667528 C 153.56891,56.057094 151.49415,52.270982 150.16059,50.253969 C 147.14121,45.687137 147.13355,45.279499 150.05518,44.648185 C 156.18522,43.323594 185.24611,41.676375 210.20138,41.239006 C 218.8754,41.086976 226.94642,40.861061 228.13699,40.736966 C 231.48996,40.387461 328.54945,40.326281 364.50957,40.651004 C 392.64786,40.905095 406.27837,41.330495 411.82251,42.127638 C 412.67292,42.249915 417.54336,42.884384 422.64573,43.5376 C 432.79173,44.836495 434.56587,45.218197 435.08915,46.21485 C 435.47008,46.940361 435.03313,47.658503 425.72281,61.609753 C 422.23718,66.83286 418.96677,71.83846 418.45516,72.733305 C 417.06863,75.158679 415.27042,76.147288 411.63165,76.484727 C 406.514,76.959302 404.59724,77.560898 403.88779,78.915206 C 402.47621,81.609879 401.21786,95.742192 402.39086,95.727682 C 402.64596,95.724515 405.91612,93.592883 409.65787,90.99071 C 413.39962,88.388537 416.77484,86.255303 417.15843,86.250222 C 417.54193,86.245104 418.23462,85.907292 418.69768,85.499509 C 420.02485,84.330742 429.27449,81.333573 433.90114,80.573094 C 445.00664,78.747727 450.246,78.823321 460.49268,80.956747 C 467.26655,82.367107 478.27147,88.048858 487.52352,94.912525 C 494.26738,99.91545 494.83843,100.48752 498.35287,105.76108 C 502.94743,112.65539 505.50819,118.33275 506.38786,123.57531 C 507.86951,132.40514 506.80191,146.74325 503.32822,164.66692 C 502.94278,166.65582 502.53231,169.19845 502.41609,170.3172 C 502.29989,171.43597 501.92924,173.26666 501.59241,174.38541 C 500.95304,176.5091 500.17928,180.39281 499.02583,187.26808 C 498.65043,189.50559 498.07846,192.35334 497.75469,193.5964 C 495.3551,202.81059 494.89966,222.8629 496.90621,230.95561 C 499.7949,242.60642 499.84072,243.02026 499.85137,257.55764 C 499.86113,270.92881 499.25424,278.1965 497.77516,282.4189 C 497.47037,283.28906 496.909,285.93338 496.52765,288.29521 C 495.1359,296.91476 488.57888,317.21717 484.70257,324.90906 C 484.01346,326.27645 482.92786,328.61567 482.29009,330.10733 C 480.20022,334.99536 477.30962,340.56507 472.96289,348.07923 C 471.99091,349.75956 471.19563,351.3614 471.19563,351.63888 C 471.19563,352.17836 470.35159,353.65508 464.38366,363.55705 C 460.95344,369.24838 446.98512,389.63859 443.28476,394.35601 C 441.64457,396.44699 435.05256,405.08369 433.18582,407.58736 C 430.4703,411.22942 407.69262,435.50661 400.23926,442.70286 C 398.4606,444.42016 395.27245,447.52299 393.15451,449.59803 C 391.03649,451.67304 388.36594,453.93571 387.21991,454.62614 C 386.07384,455.31656 383.83349,457.1785 382.24129,458.76376 C 380.64916,460.34901 377.60845,463.23579 375.4842,465.17882 C 373.36,467.12185 371.62197,468.8031 371.62197,468.91494 C 371.62197,469.02675 374.33552,470.08146 377.65207,471.25872 C 383.3411,473.27814 388.86757,476.17354 396.01789,480.88088 C 397.73717,482.01275 400.72896,483.62543 402.66625,484.46457 C 415.43871,489.99703 422.65657,501.73125 419.87672,512.44424 C 417.58888,521.2613 406.11361,530.46788 390.4853,536.02488 C 378.10335,540.42757 359.92411,544.65365 345.33701,546.52035 C 340.79442,547.10166 246.62886,547.3887 243.90797,546.82952 z M 468.63602,189.08086 C 470.1225,187.23948 472.67617,180.4156 474.05078,174.61142 C 474.58075,172.37391 475.58305,168.40741 476.2782,165.79699 C 476.97336,163.18655 477.90076,159.42346 478.33913,157.43456 C 478.7775,155.44565 479.62845,151.88597 480.23011,149.52415 C 481.08564,146.16586 481.32504,142.81626 481.32869,134.15537 C 481.33314,123.45802 481.27525,122.92684 479.62896,118.56058 C 477.44983,112.78106 471.96777,105.02355 467.79403,101.81317 C 463.70113,98.66498 456.663,96.860001 449.99174,97.247676 C 434.94023,98.12235 417.78822,113.195 412.10757,130.5392 C 409.06031,139.84309 413.75635,151.88459 423.91862,160.82473 C 427.75683,164.20138 439.48334,172.68733 443.28241,174.83745 C 448.08835,177.55742 462.56005,187.15919 464.36753,188.82716 C 466.78265,191.05585 467.02979,191.07054 468.63602,189.08086 z M 113.91534,189.24993 C 114.65835,188.97258 116.51865,187.8733 118.04937,186.8071 C 119.58008,185.74088 122.64151,183.84798 124.85254,182.60064 C 127.06356,181.35327 129.56836,179.91948 130.41876,179.41442 C 131.26916,178.90933 134.31065,177.11351 137.17765,175.42369 C 152.85186,166.18527 157.87781,162.19644 168.38729,150.6542 C 173.74792,144.76684 173.79249,144.66963 173.78297,138.89032 C 173.77491,134.0034 172.53979,127.79705 171.21533,125.9883 C 170.88751,125.54063 170.61931,124.72556 170.61931,124.17704 C 170.61931,122.84995 165.25048,114.83587 161.70873,110.87619 C 156.85882,105.45396 151.25906,101.84099 142.78816,98.66862 C 138.30652,96.990237 137.89443,96.924698 130.60331,96.730644 C 123.57984,96.543706 122.74038,96.614183 118.48714,97.747946 C 111.7988,99.53081 104.48045,105.33514 102.00733,110.81839 C 97.916001,119.88948 97.572072,136.48287 101.13949,152.68832 C 101.65943,155.05012 102.47737,159.11835 102.95714,161.72877 C 103.43691,164.33919 104.10465,167.49206 104.44098,168.73514 C 105.58235,172.95346 106.83029,178.2193 107.22622,180.48773 C 107.69767,183.18893 109.76124,188.31309 110.71629,189.15417 C 111.54698,189.88571 112.16278,189.90415 113.91534,189.24993 z"
     id="path8938" />
</svg>

<svg xmlns="http://www.w3.org/2000/svg" viewBox="0 0 580 580"><path d="m66.28 1.768c-41.34 0-64.57 21.371-64.57 65.04v450.12c0 40.844 20.895 62.23 62.19 62.23h452.02c41.31 0 62.23-20.315 62.23-62.23v-450.12c0-42.601-20.922-65.04-63.52-65.04-.004 0-448.5-.143-448.35 0z" fill="#111" stroke="#eee" stroke-width="3.408"/><path d="m243.91 546.83c-1.02-.21-5.056-.91-8.968-1.556-13.494-2.229-22.561-3.966-23.802-4.56-.685-.328-2.916-.994-4.956-1.48-6.415-1.527-10.456-2.748-12.19-3.682-.922-.497-1.841-.903-2.043-.903-2.271 0-14.984-8.096-20.229-12.883-3.805-3.472-7.294-9.816-8.132-14.783-.968-5.739 3.38-14.09 10.157-19.511 3.12-2.495 10.06-6.454 12.955-7.391.85-.275 3.912-2.041 6.803-3.923 2.891-1.882 5.52-3.425 5.842-3.429.322-.004 1.594-.518 2.826-1.142 1.233-.624 3.645-1.496 5.36-1.938 1.716-.442 3.77-1.119 4.566-1.505 1.447-.702 1.447-.702-.775-3.147-2.667-2.935-8.191-7.834-14.75-13.08-10.934-8.75-20.95-17.752-28.544-25.655-.786-.818-2.284-2.344-3.328-3.39-1.965-1.97-8.925-10.186-8.925-10.536 0-.109-.756-1.059-1.68-2.111-1.876-2.135-3.129-3.664-5.454-6.658-.869-1.119-2.575-3.255-3.791-4.746-1.216-1.492-2.848-3.526-3.626-4.52-.778-.994-2.691-3.435-4.25-5.424-1.56-1.989-2.838-3.804-2.84-4.03-.003-.229-.405-.74-.894-1.135-.94-.759-12.716-17.78-12.716-18.38 0-.193-.526-1.177-1.169-2.188-3.214-5.05-6.253-10.09-6.253-10.36 0-.166-.54-1.165-1.201-2.219-.661-1.054-2.49-4.357-4.065-7.34-1.575-2.983-3.566-6.746-4.423-8.362-.857-1.616-2.232-4.362-3.054-6.102-.823-1.74-1.769-3.571-2.104-4.068-.878-1.305-5.113-11.442-6.988-16.725-.882-2.486-2.302-6.469-3.154-8.85-2.087-5.829-5.1-19.354-5.9-26.481-.358-3.191-.962-8.34-1.342-11.44-1.056-8.614-.007-20.822 2.254-26.23 1.674-4 .674-19.88-2.203-34.975-.657-3.449-1.067-6.423-.911-6.607.156-.185-.1-1.838-.569-3.673-.469-1.835-1.18-5.88-1.581-8.987-.4-3.108-.851-6.159-1-6.78-.659-2.718-2.161-10.271-3.372-16.951-1.905-10.509-1.964-29.357-.111-35.26.703-2.238 1.631-5.39 2.062-7.01 1.01-3.783 5.909-11.325 10.704-16.479 3.8-4.084 10.191-9.07 12.242-9.541.611-.142 1.111-.437 1.111-.655 0-.549 5.955-3.387 10.438-4.974 7.07-2.504 21-4.393 28.22-3.826 9.366.737 18.864 3.01 24.825 5.95 1.649.813 12.504 8.708 15.886 11.556 1.748 1.471 1.748 1.471 1.386-5.309-.363-6.789-1.438-11.888-2.752-13.05-.385-.339-2.376-.728-4.424-.863-4.664-.309-9.191-1.914-10.645-3.774-1.126-1.44-3.755-6.624-7.654-15.09-1.202-2.61-3.277-6.397-4.611-8.414-3.02-4.567-3.03-4.974-.105-5.606 6.13-1.325 35.19-2.972 60.15-3.409 8.674-.152 16.745-.378 17.936-.502 3.353-.35 100.41-.411 136.37-.086 28.14.254 41.769.679 47.31 1.477.85.122 5.721.757 10.823 1.41 10.146 1.299 11.92 1.681 12.443 2.677.381.726-.056 1.444-9.366 15.395-3.486 5.223-6.756 10.229-7.268 11.124-1.387 2.425-3.185 3.414-6.824 3.751-5.118.475-7.03 1.076-7.744 2.43-1.412 2.695-2.67 16.827-1.497 16.812.255-.003 3.525-2.135 7.267-4.737 3.742-2.602 7.117-4.735 7.501-4.74.383-.005 1.076-.343 1.539-.751 1.327-1.169 10.577-4.166 15.203-4.926 11.11-1.825 16.345-1.75 26.592.384 6.774 1.41 17.779 7.092 27.03 13.956 6.744 5 7.315 5.575 10.829 10.849 4.595 6.894 7.155 12.572 8.03 17.814 1.482 8.83.414 23.17-3.06 41.09-.385 1.989-.796 4.532-.912 5.65-.116 1.119-.487 2.949-.824 4.068-.639 2.124-1.413 6.01-2.567 12.883-.375 2.238-.947 5.085-1.271 6.328-2.4 9.214-2.855 29.27-.848 37.36 2.889 11.651 2.935 12.06 2.945 26.602.001 13.371-.597 20.639-2.076 24.861-.305.87-.866 3.514-1.248 5.876-1.392 8.62-7.949 28.922-11.825 36.614-.689 1.367-1.775 3.707-2.412 5.198-2.09 4.888-4.98 10.458-9.327 17.972-.972 1.68-1.767 3.282-1.767 3.56 0 .539-.844 2.02-6.812 11.918-3.43 5.691-17.399 26.08-21.1 30.799-1.64 2.091-8.232 10.728-10.1 13.231-2.716 3.642-25.493 27.919-32.947 35.12-1.779 1.717-4.967 4.82-7.085 6.895-2.118 2.075-4.789 4.338-5.935 5.03-1.146.69-3.386 2.552-4.979 4.138-1.592 1.585-4.633 4.472-6.757 6.415-2.124 1.943-3.862 3.624-3.862 3.736 0 .112 2.714 1.167 6.03 2.344 5.689 2.02 11.216 4.915 18.366 9.622 1.719 1.132 4.711 2.745 6.648 3.584 12.772 5.532 19.99 17.267 17.21 27.98-2.288 8.817-13.763 18.02-29.391 23.581-12.382 4.403-30.561 8.629-45.15 10.495-4.543.581-98.71.868-101.43.309zm224.73-357.75c1.486-1.841 4.04-8.665 5.415-14.469.53-2.238 1.532-6.204 2.227-8.814.695-2.61 1.623-6.374 2.061-8.362.438-1.989 1.289-5.549 1.891-7.91.856-3.358 1.095-6.708 1.099-15.369.004-10.697-.053-11.229-1.7-15.595-2.179-5.78-7.661-13.537-11.835-16.747-4.093-3.148-11.131-4.953-17.802-4.565-15.05.875-32.2 15.947-37.884 33.29-3.047 9.304 1.649 21.345 11.811 30.29 3.838 3.377 15.565 11.863 19.364 14.01 4.806 2.72 19.278 12.322 21.09 13.99 2.415 2.229 2.662 2.243 4.268.254zm-354.72.169c.743-.277 2.603-1.377 4.134-2.443 1.531-1.066 4.592-2.959 6.803-4.206 2.211-1.247 4.716-2.681 5.566-3.186.85-.505 3.892-2.301 6.759-3.991 15.674-9.238 20.7-13.227 31.21-24.769 5.361-5.887 5.405-5.985 5.396-11.764-.008-4.887-1.243-11.09-2.568-12.902-.328-.448-.596-1.263-.596-1.811 0-1.327-5.369-9.341-8.911-13.301-4.85-5.422-10.45-9.04-18.921-12.208-4.482-1.678-4.894-1.744-12.185-1.938-7.02-.187-7.863-.116-12.12 1.017-6.688 1.783-14.01 7.587-16.48 13.07-4.091 9.07-4.435 25.664-.868 41.87.52 2.362 1.338 6.43 1.818 9.04.48 2.61 1.148 5.763 1.484 7.01 1.141 4.218 2.389 9.484 2.785 11.753.471 2.701 2.535 7.825 3.49 8.666.831.732 1.446.75 3.199.096z" fill="#fff" stroke="#fff" stroke-width="5.363"/></svg>
